X: 37
T: The Old Man and Old Woman
O: Don Messer
R: reel
Z: John Chambers <jc@eddie.mit.edu> http://eddie.mit.edu/~jc/music/
M: C|
L: 1/8
K: G
|: Bc \
| "G"dedB GBdB | "D7"cdcB A2g2 | fgfe dfaf |1 "G"gage d2 :|2 "G"gfga g2 :|
|: Bc \
| "G"dg2g g2Bc | "D7"df2f f2AB |1 "C"ce2e e2dB | "G"GABc d2 :|2  "C"ce2e e2dc | "G"BG"D7"AF "G"G2 :|

